!!!!SEGMENT: pl-kk--kk-i-382--074_anonim--offertorium-nro-15.krn
!!!cenid: 18xx:1576
!!!COM: Anonim
!!!COM-rismID: pe30004985
!!!CDT:
!!!CNT:
!!!OTL: Offertorium Nro 15
!!!PDT:
!!!AGN: Sacred
!!!SMS-siglum: PL-Kk
!!!SMS-shelfmark: Kk.I.382
!!!SMS-shelfwork: 060 W
!!!SMS-variant:
!!!SMS-altvar:
!!!NIFC-rismSourceID: 1001139027
!!!NIFC-rismChildID: 1001142258
!!!NIFC-islandoraID: pl-kk:6162
!!!URL-pdf-islandora: https://repozytorium.nifc.pl/islandora/object/pl-kk%3A6162/datastream/PDF/view
!!!URL-scan: https://polish.musicsources.pl/pl/lokalizacje/galeria/rekopisy/5994 @EN{Scan on Polish Music Sources Website} @PL{Skany w portalu Dziedzictwo Muzyki Polskiej w otwartym dostępie}
!!!ONB-nifc: UWAGA: Offertoria od skanu 0041 (S/T1), 0113 (T2), 0185 (A/B1), 0262 (B2)
!!!ONB-nifc: UWAGA: obsada: S/T1, A/B1, T2, B2. Skany 0046, 0192, 0118-0119, 0268
!!!AIN: 1 alto 1 bass 2 tenor
!!!key:
**kern	**text	**kern	**text	**kern	**text	**kern	**text
*part4	*part4	*part3	*part3	*part2	*part2	*part1	*part1
*staff4	*staff4	*staff3	*staff3	*staff2	*staff2	*staff1	*staff1
*Ibass	*	*Itenor	*	*Ialto	*	*Itenor	*
*I"Basso II	*	*I"Tenore II	*	*I"Alto. vel Basso I	*	*I"Soprano vel Tenore I.	*
*I'B2	*	*I'T2	*	*I'A / B1	*	*I'S / T1	*
*clefF4	*	*clefC4	*	*clefC3	*	*clefC1	*
*k[b-e-]	*	*k[b-e-]	*	*k[b-e-]	*	*k[b-e-]	*
*B-:	*	*B-:	*	*B-:	*	*B-:	*
*M4/4	*	*M4/4	*	*M4/4	*	*M4/4	*
*met(C.)	*	*met(C.)	*	*met(c|)	*	*met(C.)	*
=1	=1	=1	=1	=1	=1	=1	=1
*all\right	*	*all\right	*	*all\right	*	*all\right	*
*	*	*	*	*2\right	*	*2\right	*
!LO:SIC:l:v:s=Haec	!	!LO:SIC:l:v:s=Haec	!	!LO:SIC:l:v:s=Haec	!	!LO:SIC:l:v:s=Haec	!
!LO:TX:a:t=N ro 15.	!	!LO:TX:a:t=Nro. 15	!	!LO:TX:a:t=Hec est Dies. in B.\nNro. 15.	!	!LO:TX:a:t=Nro. 15.	!
2BB-/	Hec	2F/	Hec	2d\	Hec	2b-\	Hec
2BB-/	est	2F/	est	2d\	est	2f/	est
=2	=2	=2	=2	=2	=2	=2	=2
2AA/	di-	2F/	Di-	2e-\	di-	2cc\	di-
2AA/	-es	2F/	-es	2e-\	-es	2f/	-es
=3	=3	=3	=3	=3	=3	=3	=3
2BB-/	quam	(4F/	quam	(4d\	quam	2dd\	quam
.	.	4B-/)	.	4f\)	.	.	.
4E-\	fe-	4G/	fe-	4b-\	fe-	(8dd\L	fe-
.	.	.	.	.	.	8cc\J)	.
4E-\	-cit	4c\	-cit	4g\	-cit	(8ff\L	-cit
.	.	.	.	.	.	8ee-\J)	.
=4	=4	=4	=4	=4	=4	=4	=4
4.F\	Do-	4.B-\	Do-	4.f\	Do-	4.dd\	Do-
8F\	-mi-	8B-\	-mi-	8f\	-mi-	8dd\	-mi-
*	*	*2\right	*	*	*	*	*
2F 2FF/	-nus,	2A\	-nus	2f\	-nus,	2cc\	-nus
!LO:LB:g=original	!	!	!	!	!	!	!
=5	=5	=5	=5	=5	=5	=5	=5
!LO:SIC:l:v:s=haec	!	!LO:SIC:l:v:s=haec	!	!LO:SIC:l:v:s=haec	!	!LO:SIC:l:v:s=haec	!
2GG/	hec	(4G/	hec	2d\	hec	2b-\	hec
.	.	4F/)	.	.	.	.	.
2C/	est	(4En/	est	(4g\	est	(4.cc\	est
.	.	4G/)	.	4en\)	.	.	.
.	.	.	.	.	.	8b-\)	.
!	!	!	!	!LO:LB:g=original	!	!LO:LB:g=original	!
=6	=6	=6	=6	=6	=6	=6	=6
2F 2FF/	di-	2F/	di-	(4f\	di-	2a\	di-
.	.	.	.	4en\)	.	.	.
4D\	-es	2A\	-es	4d\	-es	2ff\	-es
4C/	quam	.	.	4f\	quam	.	.
!	!	!LO:LB:g=original	!	!	!	!	!
=7	=7	=7	=7	=7	=7	=7	=7
4BB-/	fe-	(8d\L	quam	4f\	fe-	(8ff\L	quam
.	.	8c\J)	.	.	.	8een\J)	.
4BB-/	-cit	8d\	fe-	(8f\L	-cit	8ff\	fe-
.	.	8B-\	-cit	8g\J)	.	8dd\	-cit
4C/	Do-	(8A\L	Do-	(8a\L	Do-	4cc\	Do-
.	.	8c\J)	.	8f\J)	.	.	.
!	!	!	!	!	!	!LO:SIC:v:s=4en	!
4C/	-mi-	(8c\L	-mi-	(8g\L	-mi-	4e-/	-mi-
.	.	8B-\J)	.	8c\J)	.	.	.
=8	=8	=8	=8	=8	=8	=8	=8
2F 2FF/	-nus,	2.A\	-nus,	2c\	-nus	2f/	-nus,
2r	.	.	.	2r	.	2r	.
.	.	4r	.	.	.	.	.
=9	=9	=9	=9	=9	=9	=9	=9
*2\right	*	*	*	*	*	*	*
2F\	e-	2F/	e-	2f\	e-	2f/	e-
!LO:TX:t=P:problem=bemol E- w funkcji custosa	!	!	!	!	!	!	!
2En\	-xul-	2c\	-xul-	2g\	-xul-	2cc\	-xul-
=10	=10	=10	=10	=10	=10	=10	=10
.	.	.	.	.	.	16qqb-/	.
4.E-X\	-te-	4.c\	-te-	4.f\	-te-	4.a\	-te-
8E-\	-mus	8c\	-mus	8f\	-mus	8a\	-mus
4D\	et	4B-\	et	4f\	et	4b-\	et
!LO:SIC:l:v:s=lae-	!	!LO:SIC:l:v:s=lae-	!	!LO:SIC:l:v:s=lae-	!	!LO:SIC:l:v:s=lae-	!
4D\	le-	4A-X\	le-	4f\	le-	4bn\	le-
!	!	!	!	!LO:LB:g=original	!	!	!
=11	=11	=11	=11	=11	=11	=11	=11
(4E-\	-te-	(4G\	-te-	4g\	-te-	(4cc\	-te-
4D\)	.	4Bn\)	.	4f\	-mur	4dd\)	.
4C\	-mur	4c\	-mur	2e-\	in	(8ee-X\L	-mur
.	.	.	.	.	.	8dd\J)	.
4E-\	in	4G/	in	.	.	(8ee-\L	in
.	.	.	.	.	.	8cc\J)	.
!	!	!LO:LB:g=original	!	!	!	!LO:LB:g=original	!
=12	=12	=12	=12	=12	=12	=12	=12
2F\	e-	2F/	e-	2d\	e-	2b-\	e-
2F 2FF/	-a,	2F/	-a	2c\	-a	2a\	-a
=13	=13	=13	=13	=13	=13	=13	=13
2BB-/	e-	2F/	e-	2B-/	et	2.dd\	e-
!	!	!	!	!LO:SIC:l:v:s=lae-	!	!	!
2AA/	-xul-	2F#X/	-xul-	2d\	le-	.	.
!LO:TX:b:i:t=V&colon;S&colon;	!	!	!	!	!	!	!
.	.	.	.	.	.	4cc\	-xul-
!LO:PB:g=original	!	!	!	!	!	!	!
=14	=14	=14	=14	=14	=14	=14	=14
4GG/	-te-	2G/	-te-	2d\	-te-	4cc\	-te-
4GG/	-mus	.	.	.	.	4b-\	-mus
4C/	et	4Fn/	-mus	2c\	-mur	4a\	et
!	!	!	!	!	!	!LO:SIC:l:v:s=lae-	!
4BB-/	le-	4En/	et	.	.	4g\	le-
=15	=15	=15	=15	=15	=15	=15	=15
!LO:SIC:l:v:s=lae-	!	!LO:SIC:l:v:s=lae-	!	!	!	!	!
2AA/	-te-	4F/	le-	(4c\	in	4.cc\	-te-
.	.	4F/	-te-	4B-\)	.	.	.
.	.	.	.	.	.	8dd\	-mur
4BB-/	-mur	4F/	-mur	2c\	e-	(8a\L	in
.	.	.	.	.	.	8cc\J)	.
!	!	!LO:TUP:b	!	!	!	!	!
4C/	in	12En/L	in	.	.	(8b-\L	e-
.	.	12G/	.	.	.	.	.
.	.	.	.	.	.	8g\J)	.
.	.	12B-X/J	.	.	.	.	.
=16	=16	=16	=16	=16	=16	=16	=16
4F\	e-	4B-X\	e-	2c\	-a,	2f/	-a,
4FF/	-a	4A\	-a,	.	.	.	.
!	!	!LO:TX:b:t=V&colon;S&colon;	!	!	!	!	!
2r	.	2r	.	2r	.	2r	.
!	!	!LO:PB:g=original	!	!	!	!	!
=17	=17	=17	=17	=17	=17	=17	=17
2BB-/	Al-	2F/	al-	2d\	al-	2b-\	al-
2BB-/	-le-	2F/	-le-	2d\	-le-	2f/	-le-
=18	=18	=18	=18	=18	=18	=18	=18
2AA/	-lu-	2F/	-lu-	2e-\	-lu-	2cc\	-lu-
2AA/	-ja	2F/	-ja	2e-\	-ja	2f/	-ja
!	!	!	!	!LO:LB:g=original	!	!LO:LB:g=original	!
=19	=19	=19	=19	=19	=19	=19	=19
2BB-/	al-	(4B-\	al-	(4d\	al-	2dd\	al-
.	.	4A\)	.	4f\)	.	.	.
(8E-\L	-le-	2G/	-le-	(4e-\	-le-	(8ff\L	-le-
8C\	.	.	.	.	.	8ee-\	.
8D\	.	.	.	8f\L	.	8dd\	.
8E-\J)	.	.	.	8e-\J)	.	8cc\J)	.
!LO:LB:g=original	!	!	!	!	!	!	!
=20	=20	=20	=20	=20	=20	=20	=20
2F\	-lu-	2F/	-lu-	2d\	-lu-	2b-\	-lu-
2F 2FF/	-ja	2F/	-ja	2c\	-ja	2a\	-ja
=21	=21	=21	=21	=21	=21	=21	=21
2E-\	al-	2c\	al-	2g\	al-	2cc\	al-
2D\	-le-	2Bn\	-le-	(4g\	-le-	2dd\	-le-
.	.	.	.	4f\)	.	.	.
=22	=22	=22	=22	=22	=22	=22	=22
2C/	-lu-	2.c\	-lu-	(4e-\	-lu-	(4.ee-\	-lu-
.	.	.	.	4g\)	.	.	.
.	.	.	.	.	.	8dd\)	.
2E-\	-ja	.	.	2g\	-ja	(8cc\L	-ja
.	.	.	.	.	.	8gg\J)	.
.	.	4c\	-ja	.	.	(16ff\LL	al-
.	.	.	.	.	.	16ee-\	.
.	.	.	.	.	.	16dd\	.
.	.	.	.	.	.	16cc\JJ)	.
=23	=23	=23	=23	=23	=23	=23	=23
.	.	.	.	.	.	16qqcc/	.
4F\	al-	4B-X\	al-	4d\	al-	2b-\	-le-
4F\	-le-	4B-\	-le-	4d\	-le-	.	.
2F 2FF/	-lu-	(4.A/	-lu-	2e-\	-lu-	(4dd\	-lu-
.	.	.	.	.	.	4cc\)	.
.	.	8F/)	.	.	.	.	.
=24	=24	=24	=24	=24	=24	=24	=24
1BB-	-ja.	1F	-ja.	1d	-ja.	1b-	-ja.
==	==	==	==	==	==	==	==
*-	*-	*-	*-	*-	*-	*-	*-
!!!system-decoration: [(s1,s2,s3,s4)]
!!!ENC: Marta Lawrence
!!!END: 2021-02-12
!!!ENC: Andrzej Borzym
!!!END: 2021-01-30
!!!YEC: Copyright 2022 Narodowy Instytut Fryderyka Chopina (https://polishscores.org)
!!!YEM: License CC-BY-4.0 (https://creativecommons.org/licenses/by/4.0)
